src/images/pl-light.svg

<svg width="147" height="144" viewBox="0 0 147 144" fill="none" xmlns="http://www.w3.org/2000/svg">
<path d="M5.53098 17.1442L5.54377 17.1378L5.55617 17.1307L34.0391 0.791618C34.571 0.627126 35.3076 0.617798 36.0813 0.80076L103 39.2295C103.32 39.4786 103.441 39.7729 103.441 40.0009C103.441 40.2208 103.332 40.4376 103.054 40.5765L103.041 40.5829L103.029 40.59L74.5002 56.9552L74.4856 56.9636L74.4717 56.9729C74.2403 57.1271 73.9008 57.2206 73.5327 57.2206C73.1645 57.2206 72.825 57.1271 72.5937 56.9729L72.5798 56.9636L72.5653 56.9553L5.58472 18.4912C5.26476 18.2421 5.14392 17.9478 5.14392 17.7198C5.14392 17.4998 5.25329 17.283 5.53098 17.1442Z" fill="#FFA4B5" stroke="url(#paint0_linear_602_4439)"/>
<path d="M110.382 0.765435L110.397 0.757074L110.411 0.747753C110.885 0.431798 111.566 0.394699 112.33 0.772889L141.26 17.3356C141.58 17.5847 141.7 17.8789 141.7 18.1068C141.7 18.3268 141.591 18.5436 141.313 18.6824L141.302 18.6881L141.291 18.6945L112.762 34.8385L112.746 34.8475L112.731 34.8577C112.5 35.0119 112.16 35.1054 111.792 35.1054C111.424 35.1054 111.084 35.0119 110.853 34.8577L110.838 34.8474L110.822 34.8383L81.8809 18.4901C81.5619 18.2412 81.4414 17.9474 81.4414 17.7198C81.4414 17.4998 81.5508 17.283 81.8285 17.1442L81.8413 17.1378L81.8537 17.1307L110.382 0.765435Z" fill="#FFA4B5" stroke="url(#paint1_linear_602_4439)"/>
<path d="M78.0394 99.1949L78.0246 99.2033L78.0104 99.2128C77.8952 99.2896 77.673 99.3056 77.4164 99.1477C77.1668 98.994 77.0186 98.7512 77.0186 98.523V65.5714C77.0186 65.0998 77.3512 64.3614 77.9316 63.7605L106.399 47.651L106.415 47.642L106.43 47.6319C106.545 47.5551 106.768 47.5391 107.024 47.697C107.274 47.8506 107.422 48.0935 107.422 48.3216V81.9367C107.422 82.2173 107.285 82.4705 107.035 82.5952L107.022 82.6015L107.01 82.6085L78.0394 99.1949Z" fill="#FFA4B5" stroke="url(#paint2_linear_602_4439)"/>
<path d="M116.107 42.1342L116.12 42.1279L116.132 42.1207L144.647 25.7634C145.157 25.5176 145.681 25.8747 145.681 26.4276V103.388C145.681 104.111 145.323 104.807 144.631 105.153L144.618 105.159L144.606 105.166L78.0531 143.196C77.543 143.442 77.0186 143.085 77.0186 142.532V109.581C77.0186 108.858 77.3773 108.162 78.0691 107.816L78.0815 107.81L78.0935 107.803L113.699 87.4572L113.714 87.4487L113.728 87.4392C114.119 87.1788 114.499 86.797 114.784 86.3536C115.068 85.9115 115.278 85.3762 115.278 84.8116V43.6774V43.5963L115.252 43.5193C115.136 43.1716 115.361 42.5075 116.107 42.1342Z" fill="#FFA4B5" stroke="url(#paint3_linear_602_4439)"/>
<path d="M69.3839 99.1833V99.1866C69.3839 99.4574 69.1156 99.7046 68.7564 99.6092L33.6423 79.5124L33.6301 79.5054L33.6175 79.4991C32.3618 78.8713 31.1247 79.8399 31.1247 81.0521V120.859C31.1247 121.088 30.9765 121.33 30.7268 121.484C30.4702 121.642 30.248 121.626 30.1328 121.549L30.1188 121.54L30.1043 121.531L1.59104 105.175C1.32216 104.993 1.04438 104.715 0.835249 104.39C0.62186 104.058 0.5 103.708 0.5 103.388V25.9853C0.5 25.7572 0.648196 25.5143 0.897859 25.3607C1.15445 25.2028 1.37665 25.2188 1.49186 25.2956L1.50604 25.305L1.52083 25.3135L68.735 63.7848C69.2353 64.1263 69.6044 64.8376 69.6051 65.5695C69.6051 65.5701 69.6051 65.5708 69.6051 65.5715L69.3839 99.1833Z" fill="#FFA4B5" stroke="url(#paint4_linear_602_4439)"/>
<path d="M68.6133 143.443L68.5986 143.433L68.5833 143.425L39.8497 127.069C39.581 126.886 39.3035 126.609 39.0946 126.284C38.8812 125.952 38.7593 125.602 38.7593 125.282V92.1097V92.0602L38.7496 92.0117C38.7117 91.822 38.7366 91.6958 38.7733 91.6152C38.81 91.5343 38.8732 91.4667 38.9663 91.4166C39.1606 91.312 39.4796 91.2927 39.7939 91.4457L68.5148 107.795C68.7834 107.977 69.0609 108.254 69.2699 108.579C69.4833 108.911 69.6052 109.261 69.6052 109.581V142.753C69.6052 142.982 69.457 143.224 69.2073 143.378C68.9507 143.536 68.7285 143.52 68.6133 143.443Z" fill="#FFA4B5" stroke="url(#paint5_linear_602_4439)"/>
<defs>
<linearGradient id="paint0_linear_602_4439" x1="4.64392" y1="0.165894" x2="107.768" y2="8.13908" gradientUnits="userSpaceOnUse">
<stop stop-color="#FF5274"/>
<stop offset="1" stop-color="#6446FA"/>
</linearGradient>
<linearGradient id="paint1_linear_602_4439" x1="80.9414" y1="0" x2="144.563" y2="4.90544" gradientUnits="userSpaceOnUse">
<stop stop-color="#FF5274"/>
<stop offset="1" stop-color="#6446FA"/>
</linearGradient>
<linearGradient id="paint2_linear_602_4439" x1="76.5186" y1="47.0751" x2="109.304" y2="47.9507" gradientUnits="userSpaceOnUse">
<stop stop-color="#FF5274"/>
<stop offset="1" stop-color="#6446FA"/>
</linearGradient>
<linearGradient id="paint3_linear_602_4439" x1="76.5186" y1="25.181" x2="149.248" y2="27.0955" gradientUnits="userSpaceOnUse">
<stop stop-color="#FF5274"/>
<stop offset="1" stop-color="#6446FA"/>
</linearGradient>
<linearGradient id="paint4_linear_602_4439" x1="0" y1="24.7388" x2="73.166" y2="27.0996" gradientUnits="userSpaceOnUse">
<stop stop-color="#FF5274"/>
<stop offset="1" stop-color="#6446FA"/>
</linearGradient>
<linearGradient id="paint5_linear_602_4439" x1="38.2307" y1="90.8345" x2="71.5075" y2="91.7285" gradientUnits="userSpaceOnUse">
<stop stop-color="#FF5274"/>
<stop offset="1" stop-color="#6446FA"/>
</linearGradient>
</defs>
</svg>

<svg width="147" height="144" fill="none" xmlns="http://www.w3.org/2000/svg"><path d="m5.531 17.144.013-.006.012-.007L34.04.79c.532-.164 1.269-.173 2.042.01L103 39.23c.32.249.441.543.441.77 0 .22-.109.438-.387.577l-.013.006-.012.007L74.5 56.955l-.014.009-.014.009c-.231.154-.571.248-.94.248-.367 0-.707-.094-.938-.248l-.014-.01-.014-.008L5.585 18.491c-.32-.249-.441-.543-.441-.771 0-.22.11-.437.387-.576Z" fill="#FFA2B5" stroke="url(#a)"/><path d="m110.382.765.015-.008.014-.01c.474-.315 1.155-.352 1.919.026l28.93 16.563c.32.249.44.543.44.77 0 .22-.109.438-.387.576l-.011.006-.011.007-28.529 16.144-.016.008-.015.01c-.231.155-.571.248-.939.248s-.708-.093-.939-.247l-.015-.01-.016-.01L81.881 18.49c-.32-.249-.44-.543-.44-.77 0-.22.11-.437.388-.576l.012-.006.013-.007L110.382.765Z" fill="#FFA2B5" stroke="url(#b)"/><path d="m78.04 99.195-.015.008-.015.01c-.115.077-.337.093-.594-.065-.25-.154-.397-.397-.397-.625V65.571c0-.471.332-1.21.913-1.81l28.467-16.11.016-.009.015-.01c.115-.077.338-.093.594.065.25.154.398.396.398.625v33.615c0 .28-.137.534-.387.658l-.013.007-.012.007-28.97 16.586Z" fill="#FFA2B5" stroke="url(#c)"/><path d="m116.107 42.134.013-.006.012-.007 28.515-16.358c.51-.245 1.034.112 1.034.665v76.96c0 .723-.358 1.419-1.05 1.765l-.013.006-.012.007-66.553 38.03c-.51.246-1.034-.111-1.034-.664v-32.951c0-.723.358-1.419 1.05-1.765l.013-.006.012-.007 35.605-20.346.015-.008.014-.01a3.79 3.79 0 0 0 1.056-1.085c.284-.442.494-.978.494-1.542V43.596l-.026-.077c-.116-.347.109-1.011.855-1.385Z" fill="#FFA2B5" stroke="url(#d)"/><path d="M69.384 99.183v.004c0 .27-.268.518-.628.422L33.642 79.512l-.012-.007-.013-.006c-1.255-.628-2.492.34-2.492 1.553v39.807c0 .229-.148.471-.398.625-.257.158-.479.142-.594.065l-.014-.009-.015-.009-28.513-16.356a2.805 2.805 0 0 1-.756-.785c-.213-.332-.335-.682-.335-1.002V25.985c0-.228.148-.47.398-.624.256-.158.479-.142.594-.065l.014.009.015.009 67.214 38.47c.5.342.87 1.054.87 1.786v.002l-.221 33.611Z" fill="#FFA2B5" stroke="url(#e)"/><path d="m68.614 143.443-.015-.01-.015-.008-28.734-16.356a2.817 2.817 0 0 1-.755-.785c-.214-.332-.335-.682-.335-1.002V92.06l-.01-.048c-.038-.19-.013-.316.023-.397.037-.08.1-.148.194-.198.194-.105.513-.124.827.029l28.721 16.348c.269.183.546.46.755.785.214.332.335.682.335 1.002v33.172c0 .229-.148.471-.397.625-.257.158-.48.142-.594.065Z" fill="#FFA2B5" stroke="url(#f)"/><defs><linearGradient id="a" x1="4.644" y1=".166" x2="107.768" y2="8.139" gradientUnits="userSpaceOnUse"><stop stop-color="#FF5274"/><stop offset="1" stop-color="#6446FA"/></linearGradient><linearGradient id="b" x1="80.941" y1="0" x2="144.563" y2="4.905" gradientUnits="userSpaceOnUse"><stop stop-color="#FF5274"/><stop offset="1" stop-color="#6446FA"/></linearGradient><linearGradient id="c" x1="76.519" y1="47.075" x2="109.304" y2="47.951" gradientUnits="userSpaceOnUse"><stop stop-color="#FF5274"/><stop offset="1" stop-color="#6446FA"/></linearGradient><linearGradient id="d" x1="76.519" y1="25.181" x2="149.248" y2="27.096" gradientUnits="userSpaceOnUse"><stop stop-color="#FF5274"/><stop offset="1" stop-color="#6446FA"/></linearGradient><linearGradient id="e" x1="0" y1="24.739" x2="73.166" y2="27.1" gradientUnits="userSpaceOnUse"><stop stop-color="#FF5274"/><stop offset="1" stop-color="#6446FA"/></linearGradient><linearGradient id="f" x1="38.231" y1="90.834" x2="71.508" y2="91.728" gradientUnits="userSpaceOnUse"><stop stop-color="#FF5274"/><stop offset="1" stop-color="#6446FA"/></linearGradient></defs></svg>
